public/janum.svg

<svg fill="none" height="28" viewBox="0 0 76 28" width="76" xmlns="http://www.w3.org/2000/svg"><g fill="#3f5042"><path d="m29.3916 19.7047c-1.2267 0-2.2212-.9944-2.2212-2.2211v-8.99605c0-1.26178-.8077-2.38188-2.0049-2.78031-.0649-.0216-.0494-.11747.019-.11747h.7195c1.9261 0 3.4876 1.56144 3.4876 3.48757zm0-8.1657h-1.0601c.0841-1.2827.3449-2.35439.7824-3.21515.4543-.86076 1.0601-1.51054 1.8173-1.94936s1.6238-.65823 2.5997-.65823c.9592 0 1.7753.18565 2.4483.55696.6731.35443 1.1863.88608 1.5397 1.59494.3702.70885.5553 1.58649.5553 2.63294v4.7618l.0977.9941c.1342 1.3661.8902 2.5942 2.0494 3.3293.0543.0344.0299.1184-.0344.1184h-.914c-2.07 0-3.748-1.678-3.748-3.748v-2.2731c0-.6751.2188-3.98422 0-4.47367-.2019-.50633-.5216-.89452-.9591-1.16456-.4207-.28692-.9675-.43038-1.6406-.43038-.5553 0-1.0517.11814-1.4892.35443-.4375.21941-.8077.51477-1.1106.88608-.3028.3713-.5384.79324-.7067 1.2658-.1514.4557-.2271.9283-.2271 1.4177z"/><path d="m64.8857 11.5102c0 .4221.1016.838.2962 1.2126l.5244 1.0096c.7013 1.3499.5404 2.9863-.4103 4.1737l-1.3204 1.6493c-.0496.062-.1438.0625-.194.001l-1.3433-1.6449c-.9707-1.1887-1.1413-2.8409-.4338-4.2028l.5122-.9859c.1946-.3746.2962-.7905.2962-1.2126 0-.4895-.1143-.962-.2658-1.4177-.1682-.47259-.4038-.89453-.7067-1.26584s-.6731-.66667-1.1106-.88608c-.4375-.23628-.9339-.35443-1.4891-.35443-.6731 0-1.22.14346-1.6407.43038-.4375.27004-.7572.65823-.9591 1.16456-.1712.38303-.0744 4.03431-.0243 5.92761.014.526.0243.9163.0243 1.0631 0 1.9352-1.5688 3.5041-3.504 3.5041h-1.1643c-.0624 0-.0871-.0833-.0359-.119 1.1757-.8197 1.938-2.1153 2.0789-3.5488l.0761-.774v-4.7619c0-1.04639.1851-1.92402.5552-2.63288.3534-.70886.8666-1.24051 1.5397-1.59494.6731-.3713 1.4892-.55696 2.4483-.55696.9759 0 1.8425.21941 2.5997.65823s1.363 1.08861 1.8173 1.94936c.4324.85071.6922 1.90749.7794 3.17029.0018.0252.0227.0449.0479.0449s.0461-.0197.0478-.0449c.0873-1.2628.3471-2.31958.7795-3.17029.4543-.86075 1.06-1.51054 1.8173-1.94936.7572-.43882 1.6237-.65823 2.5997-.65823.9591 0 1.7752.18566 2.4483.55696.6731.35443 1.1863.88608 1.5396 1.59494.3702.70886.5553 1.58649.5553 2.63288v4.7619l.0761.774c.1408 1.4335.9032 2.7291 2.0789 3.5488.0512.0357.0265.119-.036.119h-1.1642c-1.9352 0-3.504-1.5689-3.504-3.5041 0-.1468.0103-.5371.0242-1.0631.0502-1.8933.147-5.54458-.0242-5.92761-.202-.50633-.5217-.89452-.9592-1.16456-.4206-.28692-.9675-.43038-1.6406-.43038-.5553 0-1.0516.11815-1.4891.35443-.4375.21941-.8077.51477-1.1106.88608s-.5385.79325-.7067 1.26584c-.1515.4557-.3256.9282-.3256 1.4177z"/><path d="m38.3309 5.77328c.6782.35784 2.0771 1.09603 2.0771 5.54142 0 2.0182.1658 3.3876.3707 4.3094.2874 1.2935 1.2239 2.2966 2.2694 3.1107.0759.0591.1525.1176.2294.1749.7653.5704 1.4363 1.481 1.4686 2.4349.0055.1622.0113.3314.0173.5061.0337.9829.0733 2.1382.0972 3.1772.022.9559.4315 1.8644 1.1442 2.4969.045.0399.1126.0399.1576 0 .7127-.6325 1.1222-1.541 1.1442-2.4969.0239-1.039.0635-2.1943.0972-3.1772.0059-.1747.0118-.3439.0172-.5061.0324-.9539.7034-1.8645 1.4687-2.4349.0769-.0573.1535-.1158.2294-.1749 1.0455-.8141 1.9819-1.8172 2.2694-3.1107.2049-.9218.3707-2.2912.3707-4.3094 0-4.44539 1.3989-5.18358 2.077-5.54142.0021-.00111.0043-.00222.0064-.00333.1025-.05414.0648-.15877-.0502-.14351-1.2548.16648-4.5009.88457-4.5009 3.41803v2.27023c0 .1012.0025.2163.0053.3431.0272 1.255.0794 3.664-2.0118 5.2222-.2892.2155-1.1995.9996-1.2014 2.2987-.0019-1.2991-.9123-2.0832-1.2014-2.2987-2.0913-1.5582-2.039-3.9672-2.0118-5.2222.0027-.1268.0052-.2419.0052-.3431v-2.27023c0-2.53346-3.246-3.25155-4.5008-3.41803-.115-.01526-.1528.08937-.0502.14351.0021.00111.0042.00222.0063.00333z"/><path d="m.854497 14.2872c-.001949.0407-.002935.0817-.002935.1229.100961 1.6709.296118 2.8269 1.164428 3.7998.95912.9958 2.23796 1.4937 3.8365 1.4937 1.66585 0 2.97834-.5486 3.93747-1.6456.97594-1.1139 1.46394-2.6245 1.46394-4.5316v-9.43331c0-1.43954.7284-2.76735 1.9116-3.544981.1105-.072641.0613-.251414-.0701-.236431-2.3433.267197-4.16361 2.256852-4.16361 4.671662v8.79616c0 1.2321-.26923 2.1941-.80768 2.8861-.53846.692-1.29567 1.038-2.27162 1.038-.71613 0-1.30561-.1741-1.76847-.5222.47967-.0308.92902-.173 1.32244-.401.04868-.0257.09652-.055.14321-.0884.8265-.5423 1.3723-1.4772 1.3723-2.5395 0-1.6763-1.35891-3.0352-3.0352-3.0352-1.6763 0-3.035208 1.3589-3.035208 3.0352 0 .0451.000985.09.002935.1347z"/><path clip-rule="evenodd" d="m14.0445 10.0629c1.3212-1.52781 3.2051-2.52174 5.225-2.52174 1.1442 0 1.9771.29535 2.4988.88607.5384.57384.8076 1.40085.8076 2.48097v.3048c-1.2432.0075-2.337.0578-3.2812.1509-1.0264.1013-2.0108.3123-2.9531.6329-.9928.3376-1.7416.8355-2.2464 1.4937-.4879.6414-.7319 1.4262-.7319 2.3544 0 .8439.1935 1.5528.5805 2.1266.387.5739.9255 1.0042 1.6154 1.2912.7067.2869 1.5228.4303 2.4483.4303.6394 0 1.2788-.1181 1.9182-.3544s1.2368-.5991 1.7921-1.0886c.3244-.2776.6137-.6013.8678-.9712.0404 1.358 1.0559 2.4142 2.4144 2.4142h.7074c.0762 0 .1084-.0969.0474-.1425-.5672-.424-.9108-1.083-.9288-1.7908-.0146-.5752-.0289-1.2328-.0289-1.611v-5.2911c0-1.0464-.1935-1.9578-.5805-2.73416-.3871-.79325-.976-1.40929-1.7669-1.8481-.7908-.43882-1.7836-.65823-2.9783-.65823-1.0937 0-2.036.18565-2.8269.55696s-1.4219.91139-1.893 1.62025c-.4396.64567-.7401 1.42359-.9013 2.33378-.0101.0569.0604.0898.0982.046.0319-.0369.0639-.074.0961-.1112zm8.5314 3.4529v-.6316c-1.3498.0104-2.4688.0859-3.3569.2266-.9423.135-1.6743.3375-2.1959.6076-.5216.2531-.8834.5569-1.0853.9114-.2019.3544-.3029.7426-.3029 1.1645 0 .6245.2356 1.1139.7067 1.4684.488.3375 1.119.5063 1.893.5063.8245 0 1.5649-.1941 2.2212-.5823.6562-.3882 1.1694-.9029 1.5396-1.5443.387-.6582.5805-1.3671.5805-2.1266z" fill-rule="evenodd"/></g></svg>

<svg width="76" height="28" viewBox="0 0 76 28" fill="none" xmlns="http://www.w3.org/2000/svg">
<path d="M29.3916 19.7047C28.1649 19.7047 27.1704 18.7103 27.1704 17.4836V8.48755C27.1704 7.22577 26.3627 6.10567 25.1655 5.70724C25.1006 5.68564 25.1161 5.58977 25.1845 5.58977H25.904C27.8301 5.58977 29.3916 7.15121 29.3916 9.07734V19.7047ZM29.3916 11.539H28.3315C28.4156 10.2563 28.6764 9.18461 29.1139 8.32385C29.5682 7.46309 30.174 6.81331 30.9312 6.37449C31.6884 5.93567 32.555 5.71626 33.5309 5.71626C34.4901 5.71626 35.3062 5.90191 35.9792 6.27322C36.6523 6.62765 37.1655 7.1593 37.5189 7.86816C37.8891 8.57701 38.0742 9.45465 38.0742 10.5011V15.2629L38.1719 16.257C38.3061 17.6231 39.0621 18.8512 40.2213 19.5863C40.2756 19.6207 40.2512 19.7047 40.1869 19.7047H39.2729C37.2029 19.7047 35.5249 18.0267 35.5249 15.9567V13.6836C35.5249 13.0085 35.7437 9.69938 35.5249 9.20993C35.323 8.7036 35.0033 8.31541 34.5658 8.04537C34.1451 7.75845 33.5983 7.61499 32.9252 7.61499C32.3699 7.61499 31.8735 7.73313 31.436 7.96942C30.9985 8.18883 30.6283 8.48419 30.3254 8.8555C30.0226 9.2268 29.787 9.64874 29.6187 10.1213C29.4673 10.577 29.3916 11.0496 29.3916 11.539Z" fill="#3F5042"/>
<path d="M64.8857 11.5102C64.8857 11.9323 64.9873 12.3482 65.1819 12.7228L65.7063 13.7324C66.4076 15.0823 66.2467 16.7187 65.296 17.9061L63.9756 19.5554C63.926 19.6174 63.8318 19.6179 63.7816 19.5564L62.4383 17.9115C61.4676 16.7228 61.297 15.0706 62.0045 13.7087L62.5167 12.7228C62.7113 12.3482 62.8129 11.9323 62.8129 11.5102C62.8129 11.0207 62.6986 10.5482 62.5471 10.0925C62.3789 9.61991 62.1433 9.19797 61.8404 8.82666C61.5375 8.45535 61.1673 8.15999 60.7298 7.94058C60.2923 7.7043 59.7959 7.58615 59.2407 7.58615C58.5676 7.58615 58.0207 7.72961 57.6 8.01653C57.1625 8.28657 56.8428 8.67476 56.6409 9.18109C56.4697 9.56412 56.5665 13.2154 56.6166 15.1087C56.6306 15.6347 56.6409 16.025 56.6409 16.1718C56.6409 18.107 55.0721 19.6759 53.1369 19.6759H51.9726C51.9102 19.6759 51.8855 19.5926 51.9367 19.5569C53.1124 18.7372 53.8747 17.4416 54.0156 16.0081L54.0917 15.2341V10.4722C54.0917 9.42581 54.2768 8.54818 54.6469 7.83932C55.0003 7.13046 55.5135 6.59881 56.1866 6.24438C56.8597 5.87308 57.6758 5.68742 58.6349 5.68742C59.6108 5.68742 60.4774 5.90683 61.2346 6.34565C61.9918 6.78447 62.5976 7.43426 63.0519 8.29501C63.4843 9.14572 63.7441 10.2025 63.8313 11.4653C63.8331 11.4905 63.854 11.5102 63.8792 11.5102C63.9044 11.5102 63.9253 11.4905 63.927 11.4653C64.0143 10.2025 64.2741 9.14572 64.7065 8.29501C65.1608 7.43426 65.7665 6.78447 66.5238 6.34565C67.281 5.90683 68.1475 5.68742 69.1235 5.68742C70.0826 5.68742 70.8987 5.87308 71.5718 6.24438C72.2449 6.59881 72.7581 7.13046 73.1114 7.83932C73.4816 8.54818 73.6667 9.42581 73.6667 10.4722V15.2341L73.7428 16.0081C73.8836 17.4416 74.646 18.7372 75.8217 19.5569C75.8729 19.5926 75.8482 19.6759 75.7857 19.6759H74.6215C72.6863 19.6759 71.1175 18.107 71.1175 16.1718C71.1175 16.025 71.1278 15.6347 71.1417 15.1087C71.1919 13.2154 71.2887 9.56412 71.1175 9.18109C70.9155 8.67476 70.5958 8.28657 70.1583 8.01653C69.7377 7.72961 69.1908 7.58615 68.5177 7.58615C67.9624 7.58615 67.4661 7.7043 67.0286 7.94058C66.5911 8.15999 66.2209 8.45535 65.918 8.82666C65.6151 9.19797 65.3795 9.61991 65.2113 10.0925C65.0598 10.5482 64.8857 11.0207 64.8857 11.5102Z" fill="#3F5042"/>
<path d="M38.3309 5.77328C39.0091 6.13112 40.408 6.86931 40.408 11.3147C40.408 13.3329 40.5738 14.7023 40.7787 15.6241C41.0661 16.9176 42.0026 17.9207 43.0481 18.7348C43.124 18.7939 43.2006 18.8524 43.2775 18.9097C44.0428 19.4801 44.7138 20.3907 44.7461 21.3446C44.7516 21.5068 44.7574 21.676 44.7634 21.8507C44.7971 22.8336 44.8367 23.9889 44.8606 25.0279C44.8826 25.9838 45.2921 26.8923 46.0048 27.5248C46.0498 27.5647 46.1174 27.5647 46.1624 27.5248C46.8751 26.8923 47.2846 25.9838 47.3066 25.0279C47.3305 23.9889 47.3701 22.8336 47.4038 21.8507C47.4097 21.676 47.4156 21.5068 47.421 21.3446C47.4534 20.3907 48.1244 19.4801 48.8897 18.9097C48.9666 18.8524 49.0432 18.7939 49.1191 18.7348C50.1646 17.9207 51.101 16.9176 51.3885 15.6241C51.5934 14.7023 51.7592 13.3329 51.7592 11.3147C51.7592 6.86931 53.1581 6.13112 53.8362 5.77328C53.8383 5.77217 53.8405 5.77106 53.8426 5.76995C53.9451 5.71581 53.9074 5.61118 53.7924 5.62644C52.5376 5.79292 49.2915 6.51101 49.2915 9.04447V11.3147C49.2915 11.4159 49.294 11.531 49.2968 11.6578C49.324 12.9128 49.3762 15.3218 47.285 16.88C46.9958 17.0955 46.0855 17.8796 46.0836 19.1787C46.0817 17.8796 45.1713 17.0955 44.8822 16.88C42.7909 15.3218 42.8432 12.9128 42.8704 11.6578C42.8731 11.531 42.8756 11.4159 42.8756 11.3147V9.04447C42.8756 6.51101 39.6296 5.79292 38.3748 5.62644C38.2598 5.61118 38.222 5.71581 38.3246 5.76995C38.3267 5.77106 38.3288 5.77217 38.3309 5.77328Z" fill="#3F5042"/>
<path d="M0.854497 14.2872C0.852548 14.3279 0.851562 14.3689 0.851562 14.4101C0.952523 16.081 1.14768 17.237 2.01599 18.2099C2.97511 19.2057 4.25395 19.7036 5.85249 19.7036C7.51834 19.7036 8.83083 19.155 9.78996 18.058C10.7659 16.9441 11.2539 15.4335 11.2539 13.5264V4.09309C11.2539 2.65355 11.9823 1.32574 13.1655 0.548109C13.276 0.475468 13.2268 0.296695 13.0954 0.311678C10.7521 0.578875 8.93179 2.56853 8.93179 4.98334V13.7795C8.93179 15.0116 8.66256 15.9736 8.12411 16.6656C7.58565 17.3576 6.82844 17.7036 5.85249 17.7036C5.13636 17.7036 4.54688 17.5295 4.08402 17.1814C4.56369 17.1506 5.01304 17.0084 5.40646 16.7804C5.45514 16.7547 5.50298 16.7254 5.54967 16.692C6.37617 16.1497 6.92197 15.2148 6.92197 14.1525C6.92197 12.4762 5.56306 11.1173 3.88677 11.1173C2.21047 11.1173 0.851562 12.4762 0.851562 14.1525C0.851562 14.1976 0.852547 14.2425 0.854497 14.2872Z" fill="#3F5042"/>
<path fill-rule="evenodd" clip-rule="evenodd" d="M14.0445 10.0629C15.3657 8.53509 17.2496 7.54116 19.2695 7.54116C20.4137 7.54116 21.2466 7.83651 21.7683 8.42723C22.3067 9.00107 22.5759 9.82808 22.5759 10.9082V11.213C21.3327 11.2205 20.2389 11.2708 19.2947 11.3639C18.2683 11.4652 17.2839 11.6762 16.3416 11.9968C15.3488 12.3344 14.6 12.8323 14.0952 13.4905C13.6073 14.1319 13.3633 14.9167 13.3633 15.8449C13.3633 16.6888 13.5568 17.3977 13.9438 17.9715C14.3308 18.5454 14.8693 18.9757 15.5592 19.2627C16.2659 19.5496 17.082 19.693 18.0075 19.693C18.6469 19.693 19.2863 19.5749 19.9257 19.3386C20.5651 19.1023 21.1625 18.7395 21.7178 18.25C22.0422 17.9724 22.3315 17.6487 22.5856 17.2788C22.626 18.6368 23.6415 19.693 25 19.693H25.7074C25.7836 19.693 25.8158 19.5961 25.7548 19.5505C25.1876 19.1265 24.844 18.4675 24.826 17.7597C24.8114 17.1845 24.7971 16.5269 24.7971 16.1487V10.8576C24.7971 9.8112 24.6036 8.8998 24.2166 8.12344C23.8295 7.33019 23.2406 6.71415 22.4497 6.27534C21.6589 5.83652 20.6661 5.61711 19.4714 5.61711C18.3777 5.61711 17.4354 5.80276 16.6445 6.17407C15.8536 6.54538 15.2226 7.08546 14.7515 7.79432C14.3119 8.43999 14.0114 9.21791 13.8502 10.1281C13.8401 10.185 13.9106 10.2179 13.9484 10.1741C13.9803 10.1372 14.0123 10.1001 14.0445 10.0629ZM22.5759 13.5158V12.8842C21.2261 12.8946 20.1071 12.9701 19.219 13.1108C18.2767 13.2458 17.5447 13.4483 17.0231 13.7184C16.5015 13.9715 16.1397 14.2753 15.9378 14.6298C15.7359 14.9842 15.6349 15.3724 15.6349 15.7943C15.6349 16.4188 15.8705 16.9082 16.3416 17.2627C16.8296 17.6002 17.4606 17.769 18.2346 17.769C19.0591 17.769 19.7995 17.5749 20.4558 17.1867C21.112 16.7985 21.6252 16.2838 21.9954 15.6424C22.3824 14.9842 22.5759 14.2753 22.5759 13.5158Z" fill="#3F5042"/>
</svg>
